X: 438
T: Bu Akşam Ayışığında
C: Safiye Ayla
O: Turkey
F: http://compmusic.upf.edu/node/140
N: saba--sarki--duyek--bu_aksam--safiye_ayla
N: makam= saba
N: form= sarki
N: usul= duyek = 8/4
M: 8/4
L: 1/16
K: C _2/4B _3/4d  
Q: 1/4=156
%%MIDI tuningsystem comma53
B2 c6 c4 c4  | c2 d4 c2 cB BA A4  | z2 G2 A2 B2 c2 de dc Bd  | 
w:  Bu  ak şam  ay  |  ı şı *  ğın *  *  *  da   |  se nin le  bu *  *  lu *  şa  | 
c8 d3/2c/ d2 e3/2d/ e2  | z2 f2 e2 d2 c2 _7/8a2 gf ed  | \
w:  lım    |  se nin le  bu *  lu *  şa  | 
c2 d4 dc cB BA B4  | 
w:  lım    | 
z2 A2 B2 c2 d2 c2 B2 cd  | cB A6 B3/2A/ Bc B3/2A/ G2  | \
w:  Dert le ri  u *  nu  |  ta *  lım   | 
z2 A2 B2 c2 d2 c2 B2 cd  | 
w:  u nu ta lım  *  dert  | 
cB A6 B3/2A/ Bc A4  | AB c6 cd {e}dc c3/2B/ A2  | \
w:  le *  ri   SAZ  |   | 
AG AB cd {e}dc c3/2B/ AB c4  | 
w:   | 
c2 d4 d2 d4 d2 c2  | z2 e2 d2 c2 cB BA B3/2A/ B2  | \
w:  E ğer  tu tar san   |  sö *  *  zü *  *  *  nü    | 
z2 A2 B2 c2 d2 c2 B2 cd  | 
w:  Bu  ak şam  bu *  lu  | 
cB A6 B3/2A/ Bc B3/2A/ G2  | z2 A2 B2 c2 d2 c2 B2 cd  | \
w:  şa *  lım   |  dert le ri  u *  nu  | 
cB A6 B3/2A/ Bc A4  | 
w:  ta *  lım   SAZ  | 
AB c4 c2 cd {e}dc c3/2B/ A2  | c2 _7/8a4 ag gf {g}fe f4  | \
w:   |   | 
e2 f6 f4 f2 f2  | 
w:  Bu  ak şam  be ni   | 
g2 _1/4b2 _7/8a2 g2 gf fe f4  | f2 _7/8g4 gf f2 e2 e2 _7/8d2  | \
w:  aş ka  *  i nan *  *  *  dır    |  Ya lan  da  *  ol *  sa   | 
c2 d2 d2 dc cB AB c4  | 
w:  gön *  lü mü  *  kan *  *  *  dır    | 
G2 cc cc c2 GA G2 c4  | G2 cc cc c2 GA G2 cc de  | 
w:  SAZ  |   | 
f2 g6 g4 g2 g2  | g2 _1/4b2 _7/8a2 g2 gf ef g4  | \
w:  Bu  ak şam  be ni   |  aş ka  *  i nan *  *  *  dır    | 
g2 =d'2 c'2 _1/4b2 _7/8a3g g4  | 
w:  Ya lan  *  da  ol *  sa   | 
z2 e2 f2 g2 gf ef g4  | f2 _7/8a4 ag gf {g}fe f4  | \
w:  gön lü mü  kan *  *  *  dır    |  SAZ  | 
ef g_7/8a gf ed cc {B}AB c4  | 
w:   | 
c2 d4 d2 d4 d2 c2  | z2 e2 d2 c2 cB BA B3/2A/ B2  | \
w:  E ğer  tu tar san   |  sö *  *  zü *  *  *  nü    | 
z2 A2 B2 c2 d2 c2 B2 cd  | 
w:  Bu  ak şam  bu *  lu  | 
cB A6 B3/2A/ Bc B3/2A/ G2  | z2 A2 B2 c2 d2 c2 B2 cd  | \
w:  şa *  lım   |  dert le ri  u *  nu  | 
cB A6 |
w:  ta *  lım    | 


